communes/4026.svg

<?xml version="1.0" encoding="UTF-8"?>
<!DOCTYPE svg  PUBLIC '-//W3C//DTD SVG 1.1//EN'  'http://www.w3.org/Graphics/SVG/1.1/DTD/svg11.dtd'>
<svg width="400" height="450" version="1.1" viewBox="0 0 100 112.5" xmlns="http://www.w3.org/2000/svg">
<title>Wappen von Ennetbaden</title>
<desc>Wappen der Schweizer Gemeinde Ennetbaden, Kanton Aargau</desc>
<defs>
<clipPath id="a">
<path d="m2 2h96v60.5a48 48 0 0 1-96 0z"/>
</clipPath>
</defs>
<path d="m0 0h100v62.5a50 50 0 0 1-100 0"/>
<path d="m2 112v-81.88h33.5v81.88h29v-81.88h33.5v81.88" clip-path="url(#a)" fill="#fcdb00"/>
</svg>

<?xml version="1.0" encoding="utf-8" standalone="no"?>
<!DOCTYPE svg PUBLIC "-//W3C//DTD SVG 1.1//EN" "http://www.w3.org/Graphics/SVG/1.1/DTD/svg11.dtd">
<svg version="1.1"
   xmlns="http://www.w3.org/2000/svg"
   width="400" height="450" viewBox="0 0 100 112.5">
  <title>Wappen von Ennetbaden</title>
  <desc>Wappen der Schweizer Gemeinde Ennetbaden, Kanton Aargau</desc>
  <defs>
    <clipPath id="cpSchild">
      <path d="M 2,2 H 98 V 62.5 A 48 48 0 0 1 2,62.5 z" />
    </clipPath>
  </defs>
  <path d="M 0,0 H 100 V 62.5 A 50 50 0 0 1 0,62.5" />
  <path d="M 2,112 V 30.12 H 35.5 V 112 H 64.5 V 30.12 H 98 V 112" fill="#fcdb00" clip-path="url(#cpSchild)" />
</svg>
